public/showcase/resources/images/home/icon-opensource.svg

<svg height="66" viewBox="0 0 66 66" width="66" xmlns="http://www.w3.org/2000/svg"><g fill="none" fill-rule="evenodd" transform="translate(.253444 .994793)"><path d="m39.8478261 0h-14.6956522c-13.8478261 0-25.1521739 11.3043478-25.1521739 25.1521739v14.6956522c0 13.8478261 11.3043478 25.1521739 25.1521739 25.1521739h14.6956522c13.8478261 0 25.1521739-11.3043478 25.1521739-25.1521739v-14.6956522c0-13.8478261-11.3043478-25.1521739-25.1521739-25.1521739zm23.7391304 39.8478261c0 13.0706522-10.6684782 23.7391304-23.7391304 23.7391304h-14.6956522c-13.0706522 0-23.73913042-10.6684782-23.73913042-23.7391304v-14.6956522c0-13.0706522 10.66847822-23.73913042 23.73913042-23.73913042h14.6956522c13.0706522 0 23.7391304 10.66847822 23.7391304 23.73913042zm-4.2391304-.2826087c0 10.8804348-8.9021739 19.7826087-19.7826087 19.7826087h-14.1304348c-10.8804348 0-19.78260869-8.9021739-19.78260869-19.7826087v-14.1304348c0-10.8804348 8.90217389-19.78260869 19.78260869-19.78260869h14.1304348c10.8804348 0 19.7826087 8.90217389 19.7826087 19.78260869z" fill="#222" fill-rule="nonzero"/><path d="m32.5442367 17c-8.5842589 0-15.5442367 6.8348143-15.5442367 15.2665741 0 6.7448455 4.4538895 12.4662964 10.6313112 14.4859077.7777845.139639 1.0612225-.3317598 1.0612225-.7366193 0-.3617493-.0133607-1.3223533-.0209954-2.5959736-4.3240998.9221798-5.2364457-2.0467893-5.2364457-2.0467893-.7071635-1.7628254-1.7263952-2.233287-1.7263952-2.233287-1.411464-.9465464.1068858-.9278029.1068858-.9278029 1.5603405.1077751 2.3810701 1.5735162 2.3810701 1.5735162 1.3866513 2.3326275 3.638886 1.658799 4.5245105 1.2689344.1412418-.9868449.5420632-1.6597362.9867842-2.0411663-3.451836-.3851788-7.0811786-1.6953488-7.0811786-7.5451926 0-1.6662965.6060038-3.0289483 1.6004227-4.0963902-.1603286-.3861159-.6938028-1.938077.1517395-4.0401597 0 0 1.3055327-.4104824 4.2754286 1.5650816 1.2396834-.3392572 2.5700288-.5079486 3.8917852-.5135717 1.3198477.0056231 2.6501931.1743145 3.8917852.5135717 2.9679873-1.975564 4.2706569-1.5650816 4.2706569-1.5650816.8484054 2.1020827.3149311 3.6540438.1546026 4.0401597.9963275 1.0674419 1.598514 2.4300937 1.598514 4.0963902 0 5.8648386-3.6350686 7.155328-7.0983567 7.5330093.558287.4713988 1.0554965 1.4029504 1.0554965 2.8274558 0 2.0402291-.0190868 3.6868448-.0190868 4.187296 0 .4086082.2796207.8837557 1.0688572.7347449 6.17265-2.0233599 10.6227222-7.7410621 10.6227222-14.4840333 0-8.4317598-6.9609322-15.2665741-15.5470998-15.2665741" fill="#fff"/></g></svg>

<?xml version="1.0" encoding="UTF-8"?>
<svg width="66px" height="66px" viewBox="0 0 66 66" version="1.1" xmlns="http://www.w3.org/2000/svg" xmlns:xlink="http://www.w3.org/1999/xlink">
    <!-- Generator: sketchtool 45.2 (43514) - http://www.bohemiancoding.com/sketch -->
    <title>00AFEA45-16B7-4F6F-8DB5-DC0C6BAFDA41</title>
    <desc>Created with sketchtool.</desc>
    <defs></defs>
    <g id="Page-1" stroke="none" stroke-width="1" fill="none" fill-rule="evenodd">
        <g id="PrimeReact-Showcase---Homepage" transform="translate(-721.000000, -591.000000)">
            <g id="homepage" transform="translate(301.000000, 70.000000)">
                <g id="features" transform="translate(20.000000, 350.000000)">
                    <g id="info-box" transform="translate(92.000000, 171.000000)">
                        <g id="open-source" transform="translate(240.000000, 0.000000)">
                            <g id="icon-opensource" transform="translate(68.000000, 0.000000)">
                                <g id="icon-github" transform="translate(0.253444, 0.994793)">
                                    <path d="M39.8478261,0 L25.1521739,0 C11.3043478,0 0,11.3043478 0,25.1521739 L0,39.8478261 C0,53.6956522 11.3043478,65 25.1521739,65 L39.8478261,65 C53.6956522,65 65,53.6956522 65,39.8478261 L65,25.1521739 C65,11.3043478 53.6956522,0 39.8478261,0 Z M63.5869565,39.8478261 C63.5869565,52.9184783 52.9184783,63.5869565 39.8478261,63.5869565 L25.1521739,63.5869565 C12.0815217,63.5869565 1.41304348,52.9184783 1.41304348,39.8478261 L1.41304348,25.1521739 C1.41304348,12.0815217 12.0815217,1.41304348 25.1521739,1.41304348 L39.8478261,1.41304348 C52.9184783,1.41304348 63.5869565,12.0815217 63.5869565,25.1521739 L63.5869565,39.8478261 Z M59.3478261,39.5652174 C59.3478261,50.4456522 50.4456522,59.3478261 39.5652174,59.3478261 L25.4347826,59.3478261 C14.5543478,59.3478261 5.65217391,50.4456522 5.65217391,39.5652174 L5.65217391,25.4347826 C5.65217391,14.5543478 14.5543478,5.65217391 25.4347826,5.65217391 L39.5652174,5.65217391 C50.4456522,5.65217391 59.3478261,14.5543478 59.3478261,25.4347826 L59.3478261,39.5652174 Z" id="Shape" fill="#222222" fill-rule="nonzero"></path>
                                    <path d="M32.5442367,17 C23.9599778,17 17,23.8348143 17,32.2665741 C17,39.0114196 21.4538895,44.7328705 27.6313112,46.7524818 C28.4090957,46.8921208 28.6925337,46.420722 28.6925337,46.0158625 C28.6925337,45.6541132 28.679173,44.6935092 28.6715383,43.4198889 C24.3474385,44.3420687 23.4350926,41.3730996 23.4350926,41.3730996 C22.7279291,39.6102742 21.7086974,39.1398126 21.7086974,39.1398126 C20.2972334,38.1932662 21.8155832,38.2120097 21.8155832,38.2120097 C23.3759237,38.3197848 24.1966533,39.7855259 24.1966533,39.7855259 C25.5833046,42.1181534 27.8355393,41.4443249 28.7211638,41.0544603 C28.8624056,40.0676154 29.263227,39.3947241 29.707948,39.013294 C26.256112,38.6281152 22.6267694,37.3179452 22.6267694,31.4681014 C22.6267694,29.8018049 23.2327732,28.4391531 24.2271921,27.3717112 C24.0668635,26.9855953 23.5333893,25.4336342 24.3789316,23.3315515 C24.3789316,23.3315515 25.6844643,22.9210691 28.6543602,24.8966331 C29.8940436,24.5573759 31.224389,24.3886845 32.5461454,24.3830614 C33.8659931,24.3886845 35.1963385,24.5573759 36.4379306,24.8966331 C39.4059179,22.9210691 40.7085875,23.3315515 40.7085875,23.3315515 C41.5569929,25.4336342 41.0235186,26.9855953 40.8631901,27.3717112 C41.8595176,28.4391531 42.4617041,29.8018049 42.4617041,31.4681014 C42.4617041,37.33294 38.8266355,38.6234294 35.3633474,39.0011107 C35.9216344,39.4725095 36.4188439,40.4040611 36.4188439,41.8285665 C36.4188439,43.8687956 36.3997571,45.5154113 36.3997571,46.0158625 C36.3997571,46.4244707 36.6793778,46.8996182 37.4686143,46.7506074 C43.6412643,44.7272475 48.0913365,39.0095453 48.0913365,32.2665741 C48.0913365,23.8348143 41.1304043,17 32.5442367,17" id="Fill-1" fill="#FFFFFF"></path>
                                </g>
                            </g>
                        </g>
                    </g>
                </g>
            </g>
        </g>
    </g>
</svg>
